testpreset123.xmp
<x:xmpmeta xmlns:x="adobe:ns:meta/" x:xmptk="Adobe XMP Core 5.6-c140 79.160451, 2017/05/06-01:08:21        "> <rdf:RDF xmlns:rdf="http://www.w3.org/1999/02/22-rdf-syntax-ns#">  <rdf:Description rdf:about=""    xmlns:crs="http://ns.adobe.com/camera-raw-settings/1.0/"   crs:PresetType="Normal"   crs:Cluster=""   crs:UUID="B75DDB8D2083DB45948742D55F65033E"   crs:SupportsAmount="False"   crs:SupportsColor="True"   crs:SupportsMonochrome="True"   crs:SupportsHighDynamicRange="True"   crs:SupportsNormalDynamicRange="True"   crs:SupportsSceneReferred="True"   crs:SupportsOutputReferred="True"   crs:CameraModelRestriction=""   crs:Copyright=""   crs:ContactInfo=""   crs:Version="12.2.1"   crs:ProcessVersion="11.0"   crs:Saturation="-40"   crs:HueAdjustmentRed="-5"   crs:HueAdjustmentOrange="-10"   crs:HueAdjustmentYellow="0"   crs:HueAdjustmentGreen="+20"   crs:HueAdjustmentAqua="-5"   crs:HueAdjustmentBlue="-5"   crs:HueAdjustmentPurple="0"   crs:HueAdjustmentMagenta="0"   crs:SaturationAdjustmentRed="+30"   crs:SaturationAdjustmentOrange="+30"   crs:SaturationAdjustmentYellow="-30"   crs:SaturationAdjustmentGreen="-25"   crs:SaturationAdjustmentAqua="+50"   crs:SaturationAdjustmentBlue="+50"   crs:SaturationAdjustmentPurple="+35"   crs:SaturationAdjustmentMagenta="+35"   crs:LuminanceAdjustmentRed="+10"   crs:LuminanceAdjustmentOrange="+15"   crs:LuminanceAdjustmentYellow="+40"   crs:LuminanceAdjustmentGreen="+40"   crs:LuminanceAdjustmentAqua="+40"   crs:LuminanceAdjustmentBlue="+40"   crs:LuminanceAdjustmentPurple="0"   crs:LuminanceAdjustmentMagenta="0"   crs:SplitToningShadowHue="45"   crs:SplitToningShadowSaturation="25"   crs:SplitToningHighlightHue="215"   crs:SplitToningHighlightSaturation="5"   crs:SplitToningBalance="0"   crs:PostCropVignetteAmount="-16"   crs:PostCropVignetteMidpoint="50"   crs:PostCropVignetteFeather="50"   crs:PostCropVignetteRoundness="0"   crs:PostCropVignetteStyle="1"   crs:PostCropVignetteHighlightContrast="0"   crs:Highlights2012="-50"   crs:Shadows2012="+20"   crs:OverrideLookVignette="True"   crs:ToneCurveName2012="Custom"   crs:HasSettings="True">   <crs:Name>    <rdf:Alt>     <rdf:li xml:lang="x-default">Bride and Groom Facing Each Other While Holding Hands</rdf:li>    </rdf:Alt>   </crs:Name>   <crs:ShortName>    <rdf:Alt>     <rdf:li xml:lang="x-default"/>    </rdf:Alt>   </crs:ShortName>   <crs:SortName>    <rdf:Alt>     <rdf:li xml:lang="x-default"/>    </rdf:Alt>   </crs:SortName>   <crs:Group>    <rdf:Alt>     <rdf:li xml:lang="x-default">LRPC - Preset Collections</rdf:li>    </rdf:Alt>   </crs:Group>   <crs:Description>    <rdf:Alt>     <rdf:li xml:lang="x-default"/>    </rdf:Alt>   </crs:Description>   <crs:ToneCurvePV2012>    <rdf:Seq>     <rdf:li>0, 0</rdf:li>     <rdf:li>33, 39</rdf:li>     <rdf:li>69, 75</rdf:li>     <rdf:li>255, 239</rdf:li>    </rdf:Seq>   </crs:ToneCurvePV2012>   <crs:ToneCurvePV2012Red>    <rdf:Seq>     <rdf:li>0, 0</rdf:li>     <rdf:li>58, 21</rdf:li>     <rdf:li>98, 73</rdf:li>     <rdf:li>160, 154</rdf:li>     <rdf:li>255, 255</rdf:li>    </rdf:Seq>   </crs:ToneCurvePV2012Red>   <crs:ToneCurvePV2012Green>    <rdf:Seq>     <rdf:li>0, 0</rdf:li>     <rdf:li>50, 15</rdf:li>     <rdf:li>100, 77</rdf:li>     <rdf:li>164, 160</rdf:li>     <rdf:li>255, 255</rdf:li>    </rdf:Seq>   </crs:ToneCurvePV2012Green>   <crs:ToneCurvePV2012Blue>    <rdf:Seq>     <rdf:li>0, 0</rdf:li>     <rdf:li>45, 13</rdf:li>     <rdf:li>98, 74</rdf:li>     <rdf:li>142, 134</rdf:li>     <rdf:li>193, 192</rdf:li>     <rdf:li>255, 255</rdf:li>    </rdf:Seq>   </crs:ToneCurvePV2012Blue>  </rdf:Description> </rdf:RDF></x:xmpmeta>